X:0
T:The Mixolydian/Dorian/Minor (so/re/la. pi-3) Pentatonic Scale
L:1/4
M:8/4
K:GMix
P:so -ti -mi
"_so"G2 "_la"A "_do"c "_re"d "_fa"f "_so"g2 |\
"_so"g2 "_fa"f "_re"d "_do"c "_la"A "_so"G2||
M:8/4
P:re -fa -ti
K:DDor
"_re"D2 "_mi"E "_so"G "_la"A "_do"c "_re"d2 |\
"_re"d2 "_do"c "_la"A "_so"G "_mi"E "_re"D2||
M:8/4
P:la -do -fa
K:AMin
"_la"A2 "_ti"B "_re"d "_mi"e "_so"g "_la"a2 |\
"_la"a2 "_so"g "_mi"e "_re"d "_ti"B "_la"A2|]
